X:1
T:Clumsy Lover  "Arranged by Ian Fraser"
M:C|
L:1/8
Q:80
C:Traditional
S:Hornpipe
K:HP
|: d | \
{g}c/2a/2{g}a/2A/2a/2{g}a/2c/2a/2 | \
d/2a/2{g}a/2B/2a/2{g}a/2d/2a/2 | \
c/2a/2{g}a/2A/2a/2{g}a/2c/2a/2 |
B/2a/2c/2a/2d/2a/2B/2a/2 | \
d{g}c/2a/2{g}a/2A/2a/2{g}a/2c/2a/2 | \
d/2a/2{g}a/2B/2a/2{g}a/2d/2a/2 |
{g}c/2e/2{A}e/2c/2{gdedc}dG/2{d}B/2 | \
{g}B/2{d}A/2{e}A/2B/2{gAGAG}A :: \
e |
f/2a/2{g}a/2d/2a/2{g}a/2f/2a/2 | \
e/2a/2{g}a/2c/2a/2{g}a/2e/2a/2 | \
f/2a/2{g}a/2d/2a/2{g}a/2f/2a/2 |
e/2a/2d/2a/2c/2a/2e/2a/2 | \
f/2a/2{g}a/2d/2a/2{g}a/2f/2a/2 | \
e/2a/2{g}a/2c/2a/2{g}a/2A/2a/2 |
{g}c/2e/2{A}e/2c/2{gdedc}dG/2{d}B/2 | \
{g}B/2{d}A/2{e}A/2B/2{gAGAG}A :: \
d |
c/2a/2{g}a/2c/2a/2{g}a/2c/2a/2 | \
d/2a/2{g}a/2d/2a/2{g}a/2d/2a/2 | \
e/2a/2{g}a/2e/2a/2{g}a/2e/2a/2 |
f/2a/2{g}a/2f/2a/2{g}a/2f/2a/2 | \
g/2a/2f/2a/2e/2a/2d/2a/2 | \
c/2a/2B/2a/2A/2a/2B/2a/2 |
{g}c/2e/2{A}e/2c/2{gdedc}dG/2{d}B/2 | \
{g}B/2{d}A/2{e}A/2B/2{gAGAG}A :|
